X:1078
L:1/8
Q:1/8=140
M:2/2
K:A
 AF | E2 EF A2 FA | d2 dB cBAF | d2 de f2 ec | dcBA FBAF | E2 EF A2 FA | d2 dc dfaf | e2 cA BAFE | 
 A2 AB A2 :| ef | (3aba fe f2 ef | afec e2 ec | d2 de f2 ec | dcBA FBAF | E2 EF A2 FA | 
 d2 dc dfaf | e2 cA BAFE | A2 AB A2 :|

